public/static/img/user/camera.svg

<svg width="35" height="35" viewBox="0 0 35 35" fill="none" xmlns="http://www.w3.org/2000/svg">
<circle cx="17.5" cy="17.5" r="17.5" fill="white"/>
<path d="M16.9668 14.9746C15.3887 14.9746 14.1035 16.2578 14.1035 17.8379C14.1035 19.418 15.3867 20.7012 16.9668 20.7012C18.5469 20.7012 19.8301 19.418 19.8301 17.8379C19.8301 16.2578 18.5449 14.9746 16.9668 14.9746Z" fill="#171717"/>
<path d="M22.8242 12.4238H22.2617C22.1074 12.4238 21.9629 12.3398 21.8867 12.2051L21.082 10.7754C20.8125 10.2969 20.3047 9.99805 19.7539 9.99805H14.1797C13.6289 9.99805 13.1211 10.2949 12.8516 10.7754L12.0488 12.2051C11.9727 12.3398 11.8301 12.4238 11.6738 12.4238H11.1113C9.51758 12.4238 8.2207 13.7207 8.2207 15.3145V21.1387C8.2207 22.7324 9.51758 24.0293 11.1113 24.0293H22.8242C24.418 24.0293 25.7148 22.7324 25.7148 21.1387V15.3145C25.7148 13.7207 24.418 12.4238 22.8242 12.4238ZM16.9668 21.793C14.7852 21.793 13.0098 20.0176 13.0098 17.8359C13.0098 15.6543 14.7852 13.8789 16.9668 13.8789C19.1484 13.8789 20.9238 15.6543 20.9238 17.8359C20.9238 20.0176 19.1484 21.793 16.9668 21.793Z" fill="#171717"/>
</svg>

<svg width="35" height="35" fill="none" xmlns="http://www.w3.org/2000/svg"><circle cx="17.5" cy="17.5" r="17.5" fill="#fff"/><path d="M16.967 14.975a2.866 2.866 0 0 0-2.863 2.863 2.865 2.865 0 0 0 2.863 2.863 2.865 2.865 0 0 0 2.863-2.863 2.866 2.866 0 0 0-2.863-2.863Z" fill="#171717"/><path d="M22.824 12.424h-.562a.433.433 0 0 1-.375-.219l-.805-1.43a1.526 1.526 0 0 0-1.328-.777H14.18c-.551 0-1.059.297-1.328.777l-.803 1.43a.43.43 0 0 1-.375.219h-.563a2.894 2.894 0 0 0-2.89 2.89v5.825a2.894 2.894 0 0 0 2.89 2.89h11.713a2.894 2.894 0 0 0 2.89-2.89v-5.824a2.894 2.894 0 0 0-2.89-2.891Zm-5.857 9.369a3.962 3.962 0 0 1-3.957-3.957 3.962 3.962 0 0 1 3.957-3.957 3.962 3.962 0 0 1 3.957 3.957 3.962 3.962 0 0 1-3.957 3.957Z" fill="#171717"/></svg>
